X: 1025
T: Alnwick Feast
R: reel
M: 4/4
K: Amajor
|g|:aA (3AAA cdec|dBfB aBfB|aA (3AAA dcec|(3BBB ed cAAg|
aA (3AAA cdec|dBfB aBfB|aA (3AAA dcec|(3BBB ed cAAd||c>e A>e cAAc|
BEGE (3GAc d2|cAeA cAAc|(3Bcd ed cAAd|c>A e>A c>A e>A|
dBfB aBfB|cAeA fAeA|1 (3def (3efg (3agf (3efg:|2 (3def (3efg a4||

